images/5289419.svg

<?xml version="1.0" encoding="UTF-8"?>
<svg xmlns="http://www.w3.org/2000/svg" xmlns:xlink="http://www.w3.org/1999/xlink" width="300pt" height="300pt" viewBox="0 0 300 300" version="1.1">
<defs>
<g>
<symbol overflow="visible" id="glyph0-0">
<path style="stroke:none;" d="M 0.75 2.65625 L 0.75 -10.578125 L 8.25 -10.578125 L 8.25 2.65625 Z M 1.59375 1.8125 L 7.40625 1.8125 L 7.40625 -9.734375 L 1.59375 -9.734375 Z M 1.59375 1.8125 "/>
</symbol>
<symbol overflow="visible" id="glyph0-1">
<path style="stroke:none;" d="M 5.90625 -9.9375 C 4.832031 -9.9375 3.976562 -9.535156 3.34375 -8.734375 C 2.71875 -7.929688 2.40625 -6.835938 2.40625 -5.453125 C 2.40625 -4.078125 2.71875 -2.988281 3.34375 -2.1875 C 3.976562 -1.382812 4.832031 -0.984375 5.90625 -0.984375 C 6.976562 -0.984375 7.828125 -1.382812 8.453125 -2.1875 C 9.085938 -2.988281 9.40625 -4.078125 9.40625 -5.453125 C 9.40625 -6.835938 9.085938 -7.929688 8.453125 -8.734375 C 7.828125 -9.535156 6.976562 -9.9375 5.90625 -9.9375 Z M 5.90625 -11.140625 C 7.4375 -11.140625 8.660156 -10.625 9.578125 -9.59375 C 10.503906 -8.5625 10.96875 -7.179688 10.96875 -5.453125 C 10.96875 -3.734375 10.503906 -2.359375 9.578125 -1.328125 C 8.660156 -0.296875 7.4375 0.21875 5.90625 0.21875 C 4.375 0.21875 3.144531 -0.289062 2.21875 -1.3125 C 1.300781 -2.34375 0.84375 -3.722656 0.84375 -5.453125 C 0.84375 -7.179688 1.300781 -8.5625 2.21875 -9.59375 C 3.144531 -10.625 4.375 -11.140625 5.90625 -11.140625 Z M 5.90625 -11.140625 "/>
</symbol>
<symbol overflow="visible" id="glyph0-2">
<path style="stroke:none;" d="M 1.46875 -10.9375 L 3.46875 -10.9375 L 8.3125 -1.78125 L 8.3125 -10.9375 L 9.75 -10.9375 L 9.75 0 L 7.75 0 L 2.90625 -9.140625 L 2.90625 0 L 1.46875 0 Z M 1.46875 -10.9375 "/>
</symbol>
<symbol overflow="visible" id="glyph0-3">
<path style="stroke:none;" d="M 1.46875 -10.9375 L 2.953125 -10.9375 L 2.953125 -6.453125 L 8.328125 -6.453125 L 8.328125 -10.9375 L 9.8125 -10.9375 L 9.8125 0 L 8.328125 0 L 8.328125 -5.203125 L 2.953125 -5.203125 L 2.953125 0 L 1.46875 0 Z M 1.46875 -10.9375 "/>
</symbol>
</g>
</defs>
<g id="surface44617">
<rect x="0" y="0" width="300" height="300" style="fill:rgb(100%,100%,100%);fill-opacity:1;stroke:none;"/>
<path style="fill:none;stroke-width:1.2;stroke-linecap:butt;stroke-linejoin:miter;stroke:rgb(0%,0%,0%);stroke-opacity:1;stroke-miterlimit:10;" d="M 254.402344 215.898438 L 259.578125 198.972656 "/>
<path style="fill:none;stroke-width:1.2;stroke-linecap:butt;stroke-linejoin:miter;stroke:rgb(100%,0%,0%);stroke-opacity:1;stroke-miterlimit:10;" d="M 259.578125 198.972656 L 264.75 182.050781 "/>
<path style="fill:none;stroke-width:1.2;stroke-linecap:butt;stroke-linejoin:miter;stroke:rgb(100%,0%,0%);stroke-opacity:1;stroke-miterlimit:10;" d="M 264.75 182.050781 L 252.679688 169.109375 "/>
<path style="fill:none;stroke-width:1.2;stroke-linecap:butt;stroke-linejoin:miter;stroke:rgb(0%,0%,0%);stroke-opacity:1;stroke-miterlimit:10;" d="M 252.679688 169.109375 L 240.613281 156.167969 "/>
<path style=" stroke:none;fill-rule:nonzero;fill:rgb(100%,100%,100%);fill-opacity:1;" d="M 258.75 173.050781 L 270.75 173.050781 L 270.75 191.050781 L 258.75 191.050781 Z M 258.75 173.050781 "/>
<g style="fill:rgb(100%,0%,0%);fill-opacity:1;">
  <use xlink:href="#glyph0-1" x="258.75" y="186.665039"/>
</g>
<path style="fill:none;stroke-width:1.2;stroke-linecap:butt;stroke-linejoin:miter;stroke:rgb(0%,0%,0%);stroke-opacity:1;stroke-miterlimit:10;" d="M 240.613281 156.167969 L 206.128906 164.128906 "/>
<path style="fill:none;stroke-width:1.2;stroke-linecap:butt;stroke-linejoin:miter;stroke:rgb(0%,0%,0%);stroke-opacity:1;stroke-miterlimit:10;" d="M 235.289062 148.851562 L 207.703125 155.21875 "/>
<path style="fill:none;stroke-width:1.2;stroke-linecap:butt;stroke-linejoin:miter;stroke:rgb(0%,0%,0%);stroke-opacity:1;stroke-miterlimit:10;" d="M 250.957031 122.324219 L 240.613281 156.167969 "/>
<path style="fill:none;stroke-width:1.2;stroke-linecap:butt;stroke-linejoin:miter;stroke:rgb(0%,0%,0%);stroke-opacity:1;stroke-miterlimit:10;" d="M 206.128906 164.128906 L 181.988281 138.246094 "/>
<path style="fill:none;stroke-width:1.2;stroke-linecap:butt;stroke-linejoin:miter;stroke:rgb(0%,0%,0%);stroke-opacity:1;stroke-miterlimit:10;" d="M 181.988281 138.246094 L 192.335938 104.402344 "/>
<path style="fill:none;stroke-width:1.2;stroke-linecap:butt;stroke-linejoin:miter;stroke:rgb(0%,0%,0%);stroke-opacity:1;stroke-miterlimit:10;" d="M 175.058594 132.429688 L 183.335938 105.351562 "/>
<path style="fill:none;stroke-width:1.2;stroke-linecap:butt;stroke-linejoin:miter;stroke:rgb(0%,0%,0%);stroke-opacity:1;stroke-miterlimit:10;" d="M 181.988281 138.246094 L 146.601562 138.867188 "/>
<path style="fill:none;stroke-width:1.2;stroke-linecap:butt;stroke-linejoin:miter;stroke:rgb(0%,0%,0%);stroke-opacity:1;stroke-miterlimit:10;" d="M 192.335938 104.402344 L 226.820312 96.4375 "/>
<path style="fill:none;stroke-width:1.2;stroke-linecap:butt;stroke-linejoin:miter;stroke:rgb(0%,0%,0%);stroke-opacity:1;stroke-miterlimit:10;" d="M 192.335938 104.402344 L 177.839844 94.253906 "/>
<path style="fill:none;stroke-width:1.2;stroke-linecap:butt;stroke-linejoin:miter;stroke:rgb(0%,0%,100%);stroke-opacity:1;stroke-miterlimit:10;" d="M 177.839844 94.253906 L 163.34375 84.101562 "/>
<path style="fill:none;stroke-width:1.2;stroke-linecap:butt;stroke-linejoin:miter;stroke:rgb(0%,0%,0%);stroke-opacity:1;stroke-miterlimit:10;" d="M 226.820312 96.4375 L 250.957031 122.324219 "/>
<path style="fill:none;stroke-width:1.2;stroke-linecap:butt;stroke-linejoin:miter;stroke:rgb(0%,0%,0%);stroke-opacity:1;stroke-miterlimit:10;" d="M 223.144531 104.707031 L 242.453125 125.414062 "/>
<path style="fill:none;stroke-width:1.2;stroke-linecap:butt;stroke-linejoin:miter;stroke:rgb(0%,0%,100%);stroke-opacity:1;stroke-miterlimit:10;" d="M 163.34375 84.101562 L 149.210938 94.753906 "/>
<path style="fill:none;stroke-width:1.2;stroke-linecap:butt;stroke-linejoin:miter;stroke:rgb(0%,0%,0%);stroke-opacity:1;stroke-miterlimit:10;" d="M 149.210938 94.753906 L 135.078125 105.402344 "/>
<path style=" stroke:none;fill-rule:nonzero;fill:rgb(100%,100%,100%);fill-opacity:1;" d="M 152.34375 75.101562 L 175.34375 75.101562 L 175.34375 93.101562 L 152.34375 93.101562 Z M 152.34375 75.101562 "/>
<g style="fill:rgb(0%,0%,100%);fill-opacity:1;">
  <use xlink:href="#glyph0-2" x="152.34375" y="88.71582"/>
  <use xlink:href="#glyph0-3" x="163.319336" y="88.71582"/>
</g>
<path style="fill:none;stroke-width:1.2;stroke-linecap:butt;stroke-linejoin:miter;stroke:rgb(0%,0%,0%);stroke-opacity:1;stroke-miterlimit:10;" d="M 136.296875 101.421875 L 119.375 96.25 "/>
<path style="fill:none;stroke-width:1.2;stroke-linecap:butt;stroke-linejoin:miter;stroke:rgb(100%,0%,0%);stroke-opacity:1;stroke-miterlimit:10;" d="M 119.375 96.25 L 102.449219 91.074219 "/>
<path style="fill:none;stroke-width:1.2;stroke-linecap:butt;stroke-linejoin:miter;stroke:rgb(0%,0%,0%);stroke-opacity:1;stroke-miterlimit:10;" d="M 133.863281 109.386719 L 116.9375 104.210938 "/>
<path style="fill:none;stroke-width:1.2;stroke-linecap:butt;stroke-linejoin:miter;stroke:rgb(100%,0%,0%);stroke-opacity:1;stroke-miterlimit:10;" d="M 116.9375 104.210938 L 100.015625 99.039062 "/>
<path style="fill:none;stroke-width:1.2;stroke-linecap:butt;stroke-linejoin:miter;stroke:rgb(0%,0%,0%);stroke-opacity:1;stroke-miterlimit:10;" d="M 135.078125 105.402344 L 146.601562 138.867188 "/>
<path style=" stroke:none;fill-rule:nonzero;fill:rgb(100%,100%,100%);fill-opacity:1;" d="M 89.234375 86.058594 L 101.234375 86.058594 L 101.234375 104.058594 L 89.234375 104.058594 Z M 89.234375 86.058594 "/>
<g style="fill:rgb(100%,0%,0%);fill-opacity:1;">
  <use xlink:href="#glyph0-1" x="89.234375" y="99.672852"/>
</g>
<path style="fill:none;stroke-width:1.2;stroke-linecap:butt;stroke-linejoin:miter;stroke:rgb(0%,0%,0%);stroke-opacity:1;stroke-miterlimit:10;" d="M 146.601562 138.867188 L 126.304688 167.859375 "/>
<path style="fill:none;stroke-width:1.2;stroke-linecap:butt;stroke-linejoin:miter;stroke:rgb(0%,0%,0%);stroke-opacity:1;stroke-miterlimit:10;" d="M 137.75 136.988281 L 121.511719 160.183594 "/>
<path style="fill:none;stroke-width:1.2;stroke-linecap:butt;stroke-linejoin:miter;stroke:rgb(0%,0%,0%);stroke-opacity:1;stroke-miterlimit:10;" d="M 126.304688 167.859375 L 91.046875 164.773438 "/>
<path style="fill:none;stroke-width:1.2;stroke-linecap:butt;stroke-linejoin:miter;stroke:rgb(0%,0%,0%);stroke-opacity:1;stroke-miterlimit:10;" d="M 91.046875 164.773438 L 67.828125 191.488281 "/>
<path style="fill:none;stroke-width:1.2;stroke-linecap:butt;stroke-linejoin:miter;stroke:rgb(0%,0%,0%);stroke-opacity:1;stroke-miterlimit:10;" d="M 82.441406 161.984375 L 63.867188 183.351562 "/>
<path style="fill:none;stroke-width:1.2;stroke-linecap:butt;stroke-linejoin:miter;stroke:rgb(0%,0%,100%);stroke-opacity:1;stroke-miterlimit:10;" d="M 72.816406 134.4375 L 81.933594 149.605469 "/>
<path style="fill:none;stroke-width:1.2;stroke-linecap:butt;stroke-linejoin:miter;stroke:rgb(0%,0%,0%);stroke-opacity:1;stroke-miterlimit:10;" d="M 81.933594 149.605469 L 91.046875 164.773438 "/>
<path style="fill:none;stroke-width:1.2;stroke-linecap:butt;stroke-linejoin:miter;stroke:rgb(0%,0%,0%);stroke-opacity:1;stroke-miterlimit:10;" d="M 67.828125 191.488281 L 51.539062 184.574219 "/>
<path style="fill:none;stroke-width:1.2;stroke-linecap:butt;stroke-linejoin:miter;stroke:rgb(0%,0%,100%);stroke-opacity:1;stroke-miterlimit:10;" d="M 51.539062 184.574219 L 35.25 177.660156 "/>
<path style="fill:none;stroke-width:1.2;stroke-linecap:butt;stroke-linejoin:miter;stroke:rgb(0%,0%,100%);stroke-opacity:1;stroke-miterlimit:10;" d="M 35.25 177.660156 L 36.792969 160.03125 "/>
<path style="fill:none;stroke-width:1.2;stroke-linecap:butt;stroke-linejoin:miter;stroke:rgb(0%,0%,0%);stroke-opacity:1;stroke-miterlimit:10;" d="M 36.792969 160.03125 L 38.332031 142.402344 "/>
<path style="fill:none;stroke-width:1.2;stroke-linecap:butt;stroke-linejoin:miter;stroke:rgb(0%,0%,100%);stroke-opacity:1;stroke-miterlimit:10;" d="M 43.855469 174.859375 L 45.085938 160.757812 "/>
<path style="fill:none;stroke-width:1.2;stroke-linecap:butt;stroke-linejoin:miter;stroke:rgb(0%,0%,0%);stroke-opacity:1;stroke-miterlimit:10;" d="M 45.085938 160.757812 L 46.320312 146.652344 "/>
<path style=" stroke:none;fill-rule:nonzero;fill:rgb(100%,100%,100%);fill-opacity:1;" d="M 30.25 168.660156 L 41.25 168.660156 L 41.25 186.660156 L 30.25 186.660156 Z M 30.25 168.660156 "/>
<g style="fill:rgb(0%,0%,100%);fill-opacity:1;">
  <use xlink:href="#glyph0-2" x="30.25" y="182.274414"/>
</g>
<path style="fill:none;stroke-width:1.2;stroke-linecap:butt;stroke-linejoin:miter;stroke:rgb(0%,0%,0%);stroke-opacity:1;stroke-miterlimit:10;" d="M 38.332031 142.402344 L 55.574219 138.421875 "/>
<path style="fill:none;stroke-width:1.2;stroke-linecap:butt;stroke-linejoin:miter;stroke:rgb(0%,0%,100%);stroke-opacity:1;stroke-miterlimit:10;" d="M 55.574219 138.421875 L 72.816406 134.4375 "/>
<path style=" stroke:none;fill-rule:nonzero;fill:rgb(100%,100%,100%);fill-opacity:1;" d="M 61.816406 125.4375 L 84.816406 125.4375 L 84.816406 143.4375 L 61.816406 143.4375 Z M 61.816406 125.4375 "/>
<g style="fill:rgb(0%,0%,100%);fill-opacity:1;">
  <use xlink:href="#glyph0-2" x="61.816406" y="139.051758"/>
  <use xlink:href="#glyph0-3" x="72.791992" y="139.051758"/>
</g>
</g>
</svg>

<svg xmlns="http://www.w3.org/2000/svg" xmlns:xlink="http://www.w3.org/1999/xlink" width="300pt" height="300pt" viewBox="0 0 300 300"><defs><symbol overflow="visible"><path d="M.75 2.656v-13.234h7.5V2.656zm.844-.844h5.812V-9.733H1.594zm0 0"/></symbol><symbol overflow="visible" id="a"><path d="M5.906-9.938c-1.074 0-1.93.403-2.562 1.204-.625.804-.938 1.898-.938 3.28 0 1.376.313 2.466.938 3.266.633.805 1.488 1.204 2.562 1.204 1.07 0 1.922-.4 2.547-1.204.633-.8.953-1.89.953-3.265 0-1.383-.32-2.477-.953-3.28-.625-.802-1.476-1.204-2.547-1.204zm0-1.203c1.532 0 2.754.515 3.672 1.546.926 1.03 1.39 2.414 1.39 4.14 0 1.72-.464 3.095-1.39 4.126C8.66-.298 7.438.22 5.906.22c-1.53 0-2.76-.51-3.687-1.532C1.3-2.345.843-3.723.843-5.452c0-1.728.457-3.11 1.375-4.142.925-1.03 2.155-1.547 3.686-1.547zm0 0"/></symbol><symbol overflow="visible" id="b"><path d="M1.47-10.938h2L8.31-1.78v-9.158H9.75V0h-2L2.906-9.14V0H1.47zm0 0"/></symbol><symbol overflow="visible" id="c"><path d="M1.47-10.938h1.483v4.485h5.375v-4.484h1.485V0H8.328v-5.203H2.953V0H1.47zm0 0"/></symbol></defs><g><path fill="#fff" d="M0 0h300v300H0z"/><path d="M254.402 215.898l5.176-16.925" stroke-width="1.2" stroke="#000" stroke-miterlimit="10" fill="none"/><path d="M259.578 198.973l5.172-16.922M264.75 182.05l-12.07-12.94" stroke-width="1.2" stroke="#f00" stroke-miterlimit="10" fill="none"/><path d="M252.68 169.11l-12.067-12.942" stroke-width="1.2" stroke="#000" stroke-miterlimit="10" fill="none"/><path d="M258.75 173.05h12v18h-12zm0 0" fill="#fff"/><use xlink:href="#a" x="258.75" y="186.665" fill="#f00"/><path d="M240.613 156.168l-34.484 7.96M235.29 148.852l-27.587 6.367M250.957 122.324l-10.344 33.844M206.13 164.13l-24.142-25.884M181.988 138.246l10.348-33.844M175.06 132.43l8.276-27.078M181.988 138.246l-35.386.62M192.336 104.402l34.484-7.965M192.336 104.402L177.84 94.254" stroke-width="1.2" stroke="#000" stroke-miterlimit="10" fill="none"/><path d="M177.84 94.254l-14.496-10.152" stroke-width="1.2" stroke="#00f" stroke-miterlimit="10" fill="none"/><path d="M226.82 96.438l24.137 25.886M223.145 104.707l19.308 20.707" stroke-width="1.2" stroke="#000" stroke-miterlimit="10" fill="none"/><path d="M163.344 84.102L149.21 94.754" stroke-width="1.2" stroke="#00f" stroke-miterlimit="10" fill="none"/><path d="M149.21 94.754l-14.132 10.648" stroke-width="1.2" stroke="#000" stroke-miterlimit="10" fill="none"/><path d="M152.344 75.102h23v18h-23zm0 0" fill="#fff"/><g fill="#00f"><use xlink:href="#b" x="152.344" y="88.716"/><use xlink:href="#c" x="163.319" y="88.716"/></g><path d="M136.297 101.422l-16.922-5.172" stroke-width="1.2" stroke="#000" stroke-miterlimit="10" fill="none"/><path d="M119.375 96.25l-16.926-5.176" stroke-width="1.2" stroke="#f00" stroke-miterlimit="10" fill="none"/><path d="M133.863 109.387l-16.925-5.176" stroke-width="1.2" stroke="#000" stroke-miterlimit="10" fill="none"/><path d="M116.938 104.21l-16.922-5.17" stroke-width="1.2" stroke="#f00" stroke-miterlimit="10" fill="none"/><path d="M135.078 105.402l11.524 33.465" stroke-width="1.2" stroke="#000" stroke-miterlimit="10" fill="none"/><path d="M89.234 86.06h12v18h-12zm0 0" fill="#fff"/><use xlink:href="#a" x="89.234" y="99.673" fill="#f00"/><path d="M146.602 138.867l-20.297 28.992M137.75 136.988l-16.238 23.196M126.305 167.86l-35.258-3.087M91.047 164.773l-23.22 26.715M82.44 161.984l-18.573 21.368" stroke-width="1.2" stroke="#000" stroke-miterlimit="10" fill="none"/><path d="M72.816 134.438l9.118 15.167" stroke-width="1.2" stroke="#00f" stroke-miterlimit="10" fill="none"/><path d="M81.934 149.605l9.113 15.168M67.828 191.488l-16.29-6.914" stroke-width="1.2" stroke="#000" stroke-miterlimit="10" fill="none"/><path d="M51.54 184.574l-16.29-6.914M35.25 177.66l1.543-17.63" stroke-width="1.2" stroke="#00f" stroke-miterlimit="10" fill="none"/><path d="M36.793 160.03l1.54-17.628" stroke-width="1.2" stroke="#000" stroke-miterlimit="10" fill="none"/><path d="M43.855 174.86l1.23-14.102" stroke-width="1.2" stroke="#00f" stroke-miterlimit="10" fill="none"/><path d="M45.086 160.758l1.234-14.106" stroke-width="1.2" stroke="#000" stroke-miterlimit="10" fill="none"/><path d="M30.25 168.66h11v18h-11zm0 0" fill="#fff"/><use xlink:href="#b" x="30.25" y="182.274" fill="#00f"/><path d="M38.332 142.402l17.242-3.98" stroke-width="1.2" stroke="#000" stroke-miterlimit="10" fill="none"/><path d="M55.574 138.422l17.242-3.984" stroke-width="1.2" stroke="#00f" stroke-miterlimit="10" fill="none"/><path d="M61.816 125.438h23v18h-23zm0 0" fill="#fff"/><g fill="#00f"><use xlink:href="#b" x="61.816" y="139.052"/><use xlink:href="#c" x="72.792" y="139.052"/></g></g></svg>
